X: 1
T: Friendly Visit, The
M: 4/4
L: 1/8
R: hornpipe
K: Gmaj
|:BA|(3GFG DG BGBd|(3cBc AB cdef|g2 dg ecAG|FGAB cBAB|
(3GFG DG BGBd|(3cBc AB cdef|gdBG FAdc|B2 G2 G2:|
|:(3GBd|g2 dB GBdg|e2 cA FGAg|f2 ed cdeg|(3fgf (3efe dcBA|
(3GFG DG BGBd|(3cBc AB cdef|gdBG FAdc|B2 G2 G2:|
